images/47261.svg

<?xml version="1.0" encoding="UTF-8"?>
<svg xmlns="http://www.w3.org/2000/svg" xmlns:xlink="http://www.w3.org/1999/xlink" width="300pt" height="300pt" viewBox="0 0 300 300" version="1.1">
<defs>
<g>
<symbol overflow="visible" id="glyph0-0">
<path style="stroke:none;" d="M 0.453125 1.59375 L 0.453125 -6.34375 L 4.953125 -6.34375 L 4.953125 1.59375 Z M 0.953125 1.09375 L 4.453125 1.09375 L 4.453125 -5.84375 L 0.953125 -5.84375 Z M 0.953125 1.09375 "/>
</symbol>
<symbol overflow="visible" id="glyph0-1">
<path style="stroke:none;" d="M 3.546875 -5.953125 C 2.898438 -5.953125 2.382812 -5.710938 2 -5.234375 C 1.625 -4.753906 1.4375 -4.101562 1.4375 -3.28125 C 1.4375 -2.445312 1.625 -1.789062 2 -1.3125 C 2.382812 -0.832031 2.898438 -0.59375 3.546875 -0.59375 C 4.191406 -0.59375 4.703125 -0.832031 5.078125 -1.3125 C 5.453125 -1.789062 5.640625 -2.445312 5.640625 -3.28125 C 5.640625 -4.101562 5.453125 -4.753906 5.078125 -5.234375 C 4.703125 -5.710938 4.191406 -5.953125 3.546875 -5.953125 Z M 3.546875 -6.6875 C 4.460938 -6.6875 5.195312 -6.375 5.75 -5.75 C 6.300781 -5.132812 6.578125 -4.3125 6.578125 -3.28125 C 6.578125 -2.238281 6.300781 -1.410156 5.75 -0.796875 C 5.195312 -0.179688 4.460938 0.125 3.546875 0.125 C 2.617188 0.125 1.878906 -0.179688 1.328125 -0.796875 C 0.773438 -1.410156 0.5 -2.238281 0.5 -3.28125 C 0.5 -4.3125 0.773438 -5.132812 1.328125 -5.75 C 1.878906 -6.375 2.617188 -6.6875 3.546875 -6.6875 Z M 3.546875 -6.6875 "/>
</symbol>
<symbol overflow="visible" id="glyph0-2">
<path style="stroke:none;" d="M 0.890625 -6.5625 L 2.078125 -6.5625 L 4.984375 -1.078125 L 4.984375 -6.5625 L 5.84375 -6.5625 L 5.84375 0 L 4.65625 0 L 1.75 -5.484375 L 1.75 0 L 0.890625 0 Z M 0.890625 -6.5625 "/>
</symbol>
<symbol overflow="visible" id="glyph0-3">
<path style="stroke:none;" d="M 0.890625 -6.5625 L 1.765625 -6.5625 L 1.765625 -3.875 L 5 -3.875 L 5 -6.5625 L 5.890625 -6.5625 L 5.890625 0 L 5 0 L 5 -3.125 L 1.765625 -3.125 L 1.765625 0 L 0.890625 0 Z M 0.890625 -6.5625 "/>
</symbol>
</g>
</defs>
<g id="surface14837">
<rect x="0" y="0" width="300" height="300" style="fill:rgb(100%,100%,100%);fill-opacity:1;stroke:none;"/>
<path style="fill:none;stroke-width:1.2;stroke-linecap:butt;stroke-linejoin:miter;stroke:rgb(100%,0%,0%);stroke-opacity:1;stroke-miterlimit:10;" d="M 71.976562 198.613281 L 80.289062 192.355469 "/>
<path style="fill:none;stroke-width:1.2;stroke-linecap:butt;stroke-linejoin:miter;stroke:rgb(0%,0%,100%);stroke-opacity:1;stroke-miterlimit:10;" d="M 80.289062 192.355469 L 88.605469 186.097656 "/>
<path style="fill:none;stroke-width:1.2;stroke-linecap:butt;stroke-linejoin:miter;stroke:rgb(0%,0%,0%);stroke-opacity:1;stroke-miterlimit:10;" d="M 54.933594 186.664062 L 63.453125 192.636719 "/>
<path style="fill:none;stroke-width:1.2;stroke-linecap:butt;stroke-linejoin:miter;stroke:rgb(100%,0%,0%);stroke-opacity:1;stroke-miterlimit:10;" d="M 63.453125 192.636719 L 71.976562 198.613281 "/>
<path style=" stroke:none;fill-rule:nonzero;fill:rgb(100%,100%,100%);fill-opacity:1;" d="M 67.976562 193.113281 L 75.976562 193.113281 L 75.976562 204.113281 L 67.976562 204.113281 Z M 67.976562 193.113281 "/>
<g style="fill:rgb(100%,0%,0%);fill-opacity:1;">
  <use xlink:href="#glyph0-1" x="67.976562" y="201.776367"/>
</g>
<path style="fill:none;stroke-width:1.2;stroke-linecap:butt;stroke-linejoin:miter;stroke:rgb(0%,0%,100%);stroke-opacity:1;stroke-miterlimit:10;" d="M 88.605469 186.097656 L 85.222656 176.253906 "/>
<path style="fill:none;stroke-width:1.2;stroke-linecap:butt;stroke-linejoin:miter;stroke:rgb(0%,0%,0%);stroke-opacity:1;stroke-miterlimit:10;" d="M 85.222656 176.253906 L 81.839844 166.414062 "/>
<path style="fill:none;stroke-width:1.2;stroke-linecap:butt;stroke-linejoin:miter;stroke:rgb(0%,0%,100%);stroke-opacity:1;stroke-miterlimit:10;" d="M 83.296875 185.71875 L 80.59375 177.847656 "/>
<path style="fill:none;stroke-width:1.2;stroke-linecap:butt;stroke-linejoin:miter;stroke:rgb(0%,0%,0%);stroke-opacity:1;stroke-miterlimit:10;" d="M 80.59375 177.847656 L 77.886719 169.972656 "/>
<path style=" stroke:none;fill-rule:nonzero;fill:rgb(100%,100%,100%);fill-opacity:1;" d="M 85.605469 180.597656 L 92.605469 180.597656 L 92.605469 191.597656 L 85.605469 191.597656 Z M 85.605469 180.597656 "/>
<g style="fill:rgb(0%,0%,100%);fill-opacity:1;">
  <use xlink:href="#glyph0-2" x="85.605469" y="189.260742"/>
</g>
<path style="fill:none;stroke-width:1.2;stroke-linecap:butt;stroke-linejoin:miter;stroke:rgb(0%,0%,0%);stroke-opacity:1;stroke-miterlimit:10;" d="M 81.839844 166.414062 L 71.4375 166.589844 "/>
<path style="fill:none;stroke-width:1.2;stroke-linecap:butt;stroke-linejoin:miter;stroke:rgb(0%,0%,100%);stroke-opacity:1;stroke-miterlimit:10;" d="M 71.4375 166.589844 L 61.03125 166.765625 "/>
<path style="fill:none;stroke-width:1.2;stroke-linecap:butt;stroke-linejoin:miter;stroke:rgb(0%,0%,0%);stroke-opacity:1;stroke-miterlimit:10;" d="M 81.839844 166.414062 L 93.789062 149.371094 "/>
<path style="fill:none;stroke-width:1.2;stroke-linecap:butt;stroke-linejoin:miter;stroke:rgb(0%,0%,100%);stroke-opacity:1;stroke-miterlimit:10;" d="M 61.03125 166.765625 L 57.980469 176.714844 "/>
<path style="fill:none;stroke-width:1.2;stroke-linecap:butt;stroke-linejoin:miter;stroke:rgb(0%,0%,0%);stroke-opacity:1;stroke-miterlimit:10;" d="M 57.980469 176.714844 L 54.933594 186.664062 "/>
<path style="fill:none;stroke-width:1.2;stroke-linecap:butt;stroke-linejoin:miter;stroke:rgb(0%,0%,100%);stroke-opacity:1;stroke-miterlimit:10;" d="M 65.101562 170.1875 L 62.664062 178.148438 "/>
<path style="fill:none;stroke-width:1.2;stroke-linecap:butt;stroke-linejoin:miter;stroke:rgb(0%,0%,0%);stroke-opacity:1;stroke-miterlimit:10;" d="M 62.664062 178.148438 L 60.226562 186.109375 "/>
<path style=" stroke:none;fill-rule:nonzero;fill:rgb(100%,100%,100%);fill-opacity:1;" d="M 58.03125 161.265625 L 65.03125 161.265625 L 65.03125 172.265625 L 58.03125 172.265625 Z M 58.03125 161.265625 "/>
<g style="fill:rgb(0%,0%,100%);fill-opacity:1;">
  <use xlink:href="#glyph0-2" x="58.03125" y="169.928711"/>
</g>
<path style="fill:none;stroke-width:1.2;stroke-linecap:butt;stroke-linejoin:miter;stroke:rgb(0%,0%,0%);stroke-opacity:1;stroke-miterlimit:10;" d="M 54.933594 186.664062 L 35.25 193.429688 "/>
<path style="fill:none;stroke-width:1.2;stroke-linecap:butt;stroke-linejoin:miter;stroke:rgb(0%,0%,0%);stroke-opacity:1;stroke-miterlimit:10;" d="M 93.789062 149.371094 L 114.523438 151.195312 "/>
<path style="fill:none;stroke-width:1.2;stroke-linecap:butt;stroke-linejoin:miter;stroke:rgb(0%,0%,0%);stroke-opacity:1;stroke-miterlimit:10;" d="M 96.292969 144.675781 L 112.878906 146.136719 "/>
<path style="fill:none;stroke-width:1.2;stroke-linecap:butt;stroke-linejoin:miter;stroke:rgb(0%,0%,0%);stroke-opacity:1;stroke-miterlimit:10;" d="M 85.003906 130.5 L 93.789062 149.371094 "/>
<path style="fill:none;stroke-width:1.2;stroke-linecap:butt;stroke-linejoin:miter;stroke:rgb(0%,0%,0%);stroke-opacity:1;stroke-miterlimit:10;" d="M 114.523438 151.195312 L 126.472656 134.15625 "/>
<path style="fill:none;stroke-width:1.2;stroke-linecap:butt;stroke-linejoin:miter;stroke:rgb(0%,0%,0%);stroke-opacity:1;stroke-miterlimit:10;" d="M 126.472656 134.15625 L 147.203125 135.980469 "/>
<path style="fill:none;stroke-width:1.2;stroke-linecap:butt;stroke-linejoin:miter;stroke:rgb(0%,0%,0%);stroke-opacity:1;stroke-miterlimit:10;" d="M 126.472656 134.15625 L 117.6875 115.285156 "/>
<path style="fill:none;stroke-width:1.2;stroke-linecap:butt;stroke-linejoin:miter;stroke:rgb(0%,0%,0%);stroke-opacity:1;stroke-miterlimit:10;" d="M 121.152344 134.335938 L 114.125 119.238281 "/>
<path style="fill:none;stroke-width:1.2;stroke-linecap:butt;stroke-linejoin:miter;stroke:rgb(0%,0%,0%);stroke-opacity:1;stroke-miterlimit:10;" d="M 147.203125 135.980469 L 155.988281 154.847656 "/>
<path style="fill:none;stroke-width:1.2;stroke-linecap:butt;stroke-linejoin:miter;stroke:rgb(0%,0%,0%);stroke-opacity:1;stroke-miterlimit:10;" d="M 152.523438 135.800781 L 159.550781 150.894531 "/>
<path style="fill:none;stroke-width:1.2;stroke-linecap:butt;stroke-linejoin:miter;stroke:rgb(0%,0%,0%);stroke-opacity:1;stroke-miterlimit:10;" d="M 159.152344 118.9375 L 147.203125 135.980469 "/>
<path style="fill:none;stroke-width:1.2;stroke-linecap:butt;stroke-linejoin:miter;stroke:rgb(0%,0%,0%);stroke-opacity:1;stroke-miterlimit:10;" d="M 155.988281 154.847656 L 176.722656 156.675781 "/>
<path style="fill:none;stroke-width:1.2;stroke-linecap:butt;stroke-linejoin:miter;stroke:rgb(0%,0%,0%);stroke-opacity:1;stroke-miterlimit:10;" d="M 176.722656 156.675781 L 188.671875 139.632812 "/>
<path style="fill:none;stroke-width:1.2;stroke-linecap:butt;stroke-linejoin:miter;stroke:rgb(0%,0%,0%);stroke-opacity:1;stroke-miterlimit:10;" d="M 173.90625 152.160156 L 183.464844 138.527344 "/>
<path style="fill:none;stroke-width:1.2;stroke-linecap:butt;stroke-linejoin:miter;stroke:rgb(0%,0%,0%);stroke-opacity:1;stroke-miterlimit:10;" d="M 188.671875 139.632812 L 179.886719 120.765625 "/>
<path style="fill:none;stroke-width:1.2;stroke-linecap:butt;stroke-linejoin:miter;stroke:rgb(0%,0%,0%);stroke-opacity:1;stroke-miterlimit:10;" d="M 188.671875 139.632812 L 209.40625 141.460938 "/>
<path style="fill:none;stroke-width:1.2;stroke-linecap:butt;stroke-linejoin:miter;stroke:rgb(0%,0%,0%);stroke-opacity:1;stroke-miterlimit:10;" d="M 179.886719 120.765625 L 159.152344 118.9375 "/>
<path style="fill:none;stroke-width:1.2;stroke-linecap:butt;stroke-linejoin:miter;stroke:rgb(0%,0%,0%);stroke-opacity:1;stroke-miterlimit:10;" d="M 177.382812 125.460938 L 160.796875 124 "/>
<path style="fill:none;stroke-width:1.2;stroke-linecap:butt;stroke-linejoin:miter;stroke:rgb(0%,0%,0%);stroke-opacity:1;stroke-miterlimit:10;" d="M 211.410156 142.867188 L 217.382812 134.34375 "/>
<path style="fill:none;stroke-width:1.2;stroke-linecap:butt;stroke-linejoin:miter;stroke:rgb(100%,0%,0%);stroke-opacity:1;stroke-miterlimit:10;" d="M 217.382812 134.34375 L 223.359375 125.824219 "/>
<path style="fill:none;stroke-width:1.2;stroke-linecap:butt;stroke-linejoin:miter;stroke:rgb(0%,0%,0%);stroke-opacity:1;stroke-miterlimit:10;" d="M 207.398438 140.054688 L 213.375 131.53125 "/>
<path style="fill:none;stroke-width:1.2;stroke-linecap:butt;stroke-linejoin:miter;stroke:rgb(100%,0%,0%);stroke-opacity:1;stroke-miterlimit:10;" d="M 213.375 131.53125 L 219.347656 123.011719 "/>
<path style="fill:none;stroke-width:1.2;stroke-linecap:butt;stroke-linejoin:miter;stroke:rgb(0%,0%,0%);stroke-opacity:1;stroke-miterlimit:10;" d="M 209.40625 141.460938 L 213.796875 150.894531 "/>
<path style="fill:none;stroke-width:1.2;stroke-linecap:butt;stroke-linejoin:miter;stroke:rgb(0%,0%,100%);stroke-opacity:1;stroke-miterlimit:10;" d="M 213.796875 150.894531 L 218.1875 160.328125 "/>
<path style=" stroke:none;fill-rule:nonzero;fill:rgb(100%,100%,100%);fill-opacity:1;" d="M 217.351562 118.917969 L 225.351562 118.917969 L 225.351562 129.917969 L 217.351562 129.917969 Z M 217.351562 118.917969 "/>
<g style="fill:rgb(100%,0%,0%);fill-opacity:1;">
  <use xlink:href="#glyph0-1" x="217.351562" y="127.581055"/>
</g>
<path style="fill:none;stroke-width:1.2;stroke-linecap:butt;stroke-linejoin:miter;stroke:rgb(0%,0%,100%);stroke-opacity:1;stroke-miterlimit:10;" d="M 218.1875 160.328125 L 228.554688 161.242188 "/>
<path style="fill:none;stroke-width:1.2;stroke-linecap:butt;stroke-linejoin:miter;stroke:rgb(0%,0%,0%);stroke-opacity:1;stroke-miterlimit:10;" d="M 228.554688 161.242188 L 238.921875 162.15625 "/>
<path style=" stroke:none;fill-rule:nonzero;fill:rgb(100%,100%,100%);fill-opacity:1;" d="M 211.1875 154.828125 L 225.1875 154.828125 L 225.1875 165.828125 L 211.1875 165.828125 Z M 211.1875 154.828125 "/>
<g style="fill:rgb(0%,0%,100%);fill-opacity:1;">
  <use xlink:href="#glyph0-2" x="211.1875" y="163.491211"/>
  <use xlink:href="#glyph0-3" x="218.165039" y="163.491211"/>
</g>
<path style="fill:none;stroke-width:1.2;stroke-linecap:butt;stroke-linejoin:miter;stroke:rgb(0%,0%,0%);stroke-opacity:1;stroke-miterlimit:10;" d="M 238.921875 162.15625 L 247.707031 181.023438 "/>
<path style="fill:none;stroke-width:1.2;stroke-linecap:butt;stroke-linejoin:miter;stroke:rgb(0%,0%,0%);stroke-opacity:1;stroke-miterlimit:10;" d="M 247.707031 181.023438 L 264.75 192.972656 "/>
<path style="fill:none;stroke-width:1.2;stroke-linecap:butt;stroke-linejoin:miter;stroke:rgb(0%,0%,0%);stroke-opacity:1;stroke-miterlimit:10;" d="M 245.882812 201.757812 L 247.707031 181.023438 "/>
<path style="fill:none;stroke-width:1.2;stroke-linecap:butt;stroke-linejoin:miter;stroke:rgb(0%,0%,0%);stroke-opacity:1;stroke-miterlimit:10;" d="M 264.75 192.972656 L 245.882812 201.757812 "/>
<path style="fill:none;stroke-width:1.2;stroke-linecap:butt;stroke-linejoin:miter;stroke:rgb(0%,0%,0%);stroke-opacity:1;stroke-miterlimit:10;" d="M 117.6875 115.285156 L 96.953125 113.460938 "/>
<path style="fill:none;stroke-width:1.2;stroke-linecap:butt;stroke-linejoin:miter;stroke:rgb(0%,0%,0%);stroke-opacity:1;stroke-miterlimit:10;" d="M 117.6875 115.285156 L 129.632812 98.242188 "/>
<path style="fill:none;stroke-width:1.2;stroke-linecap:butt;stroke-linejoin:miter;stroke:rgb(0%,0%,0%);stroke-opacity:1;stroke-miterlimit:10;" d="M 96.953125 113.460938 L 85.003906 130.5 "/>
<path style="fill:none;stroke-width:1.2;stroke-linecap:butt;stroke-linejoin:miter;stroke:rgb(0%,0%,0%);stroke-opacity:1;stroke-miterlimit:10;" d="M 99.769531 117.976562 L 90.210938 131.609375 "/>
</g>
</svg>

<svg xmlns="http://www.w3.org/2000/svg" xmlns:xlink="http://www.w3.org/1999/xlink" width="300pt" height="300pt" viewBox="0 0 300 300"><defs><symbol overflow="visible"><path d="M.453 1.594v-7.938h4.5v7.938zm.5-.5h3.5v-6.938h-3.5zm0 0"/></symbol><symbol overflow="visible" id="a"><path d="M3.547-5.953c-.65 0-1.164.242-1.547.72-.375.48-.563 1.13-.563 1.952 0 .835.188 1.49.563 1.967.383.48.898.72 1.547.72.644 0 1.156-.24 1.53-.72.376-.476.564-1.132.564-1.968 0-.822-.187-1.474-.562-1.954-.375-.477-.887-.72-1.53-.72zm0-.734c.914 0 1.648.312 2.203.937.55.617.828 1.438.828 2.47 0 1.042-.277 1.87-.828 2.483-.555.617-1.29.922-2.203.922-.93 0-1.668-.305-2.22-.922C.774-1.41.5-2.237.5-3.28c0-1.033.273-1.853.828-2.47.55-.625 1.29-.938 2.22-.938zm0 0"/></symbol><symbol overflow="visible" id="b"><path d="M.89-6.563H2.08l2.906 5.485v-5.484h.86V0H4.656L1.75-5.484V0H.89zm0 0"/></symbol><symbol overflow="visible" id="c"><path d="M.89-6.563h.876v2.688H5v-2.688h.89V0H5v-3.125H1.766V0H.89zm0 0"/></symbol></defs><g><path fill="#fff" d="M0 0h300v300H0z"/><path d="M71.977 198.613l8.312-6.258" stroke-width="1.2" stroke="#f00" stroke-miterlimit="10" fill="none"/><path d="M80.29 192.355l8.315-6.257" stroke-width="1.2" stroke="#00f" stroke-miterlimit="10" fill="none"/><path d="M54.934 186.664l8.52 5.973" stroke-width="1.2" stroke="#000" stroke-miterlimit="10" fill="none"/><path d="M63.453 192.637l8.524 5.976" stroke-width="1.2" stroke="#f00" stroke-miterlimit="10" fill="none"/><path d="M67.977 193.113h8v11h-8zm0 0" fill="#fff"/><use xlink:href="#a" x="67.977" y="201.776" fill="#f00"/><path d="M88.605 186.098l-3.382-9.844" stroke-width="1.2" stroke="#00f" stroke-miterlimit="10" fill="none"/><path d="M85.223 176.254l-3.383-9.84" stroke-width="1.2" stroke="#000" stroke-miterlimit="10" fill="none"/><path d="M83.297 185.72l-2.703-7.872" stroke-width="1.2" stroke="#00f" stroke-miterlimit="10" fill="none"/><path d="M80.594 177.848l-2.707-7.875" stroke-width="1.2" stroke="#000" stroke-miterlimit="10" fill="none"/><path d="M85.605 180.598h7v11h-7zm0 0" fill="#fff"/><use xlink:href="#b" x="85.605" y="189.261" fill="#00f"/><path d="M81.84 166.414l-10.403.176" stroke-width="1.2" stroke="#000" stroke-miterlimit="10" fill="none"/><path d="M71.438 166.59l-10.407.176" stroke-width="1.2" stroke="#00f" stroke-miterlimit="10" fill="none"/><path d="M81.84 166.414l11.95-17.043" stroke-width="1.2" stroke="#000" stroke-miterlimit="10" fill="none"/><path d="M61.03 166.766l-3.05 9.95" stroke-width="1.2" stroke="#00f" stroke-miterlimit="10" fill="none"/><path d="M57.98 176.715l-3.046 9.95" stroke-width="1.2" stroke="#000" stroke-miterlimit="10" fill="none"/><path d="M65.102 170.188l-2.438 7.96" stroke-width="1.2" stroke="#00f" stroke-miterlimit="10" fill="none"/><path d="M62.664 178.148l-2.437 7.96" stroke-width="1.2" stroke="#000" stroke-miterlimit="10" fill="none"/><path d="M58.03 161.266h7v11h-7zm0 0" fill="#fff"/><use xlink:href="#b" x="58.031" y="169.929" fill="#00f"/><path d="M54.934 186.664L35.25 193.43M93.79 149.37l20.733 1.825M96.293 144.676l16.586 1.46M85.004 130.5l8.785 18.87M114.523 151.195l11.95-17.04M126.473 134.156l20.73 1.824M126.473 134.156l-8.785-18.87M121.152 134.336l-7.027-15.098M147.203 135.98l8.785 18.868M152.523 135.8l7.028 15.095M159.152 118.938l-11.95 17.042M155.988 154.848l20.735 1.828M176.723 156.676l11.95-17.043M173.906 152.16l9.56-13.633M188.672 139.633l-8.785-18.867M188.672 139.633l20.734 1.828M179.887 120.766l-20.735-1.83M177.383 125.46L160.797 124M211.41 142.867l5.973-8.523" stroke-width="1.2" stroke="#000" stroke-miterlimit="10" fill="none"/><path d="M217.383 134.344l5.976-8.52" stroke-width="1.2" stroke="#f00" stroke-miterlimit="10" fill="none"/><path d="M207.398 140.055l5.977-8.524" stroke-width="1.2" stroke="#000" stroke-miterlimit="10" fill="none"/><path d="M213.375 131.53l5.973-8.518" stroke-width="1.2" stroke="#f00" stroke-miterlimit="10" fill="none"/><path d="M209.406 141.46l4.39 9.435" stroke-width="1.2" stroke="#000" stroke-miterlimit="10" fill="none"/><path d="M213.797 150.895l4.39 9.433" stroke-width="1.2" stroke="#00f" stroke-miterlimit="10" fill="none"/><path d="M217.352 118.918h8v11h-8zm0 0" fill="#fff"/><use xlink:href="#a" x="217.352" y="127.581" fill="#f00"/><path d="M218.188 160.328l10.367.914" stroke-width="1.2" stroke="#00f" stroke-miterlimit="10" fill="none"/><path d="M228.555 161.242l10.367.914" stroke-width="1.2" stroke="#000" stroke-miterlimit="10" fill="none"/><path d="M211.188 154.828h14v11h-14zm0 0" fill="#fff"/><g fill="#00f"><use xlink:href="#b" x="211.188" y="163.491"/><use xlink:href="#c" x="218.165" y="163.491"/></g><path d="M238.922 162.156l8.785 18.867M247.707 181.023l17.043 11.95M245.883 201.758l1.824-20.735M264.75 192.973l-18.867 8.785M117.688 115.285l-20.735-1.824M117.688 115.285l11.945-17.043M96.953 113.46l-11.95 17.04M99.77 117.977l-9.56 13.632" stroke-width="1.2" stroke="#000" stroke-miterlimit="10" fill="none"/></g></svg>
